X:1
T:Title
%%score { ( 1 3 ) | ( 2 4 ) }
L:1/8
M:6/8
K:Eb
V:1 treble nm="Grand Piano"
V:3 treble 
V:2 bass 
V:4 bass 
V:1
 z3 z2[Q:1/4=78] G | G>FE AGF | cBA G<BB | [Ec]>[Ed][Ec] BAG | %4
[M:13/16] [EG][DF][G,CE][B,B]-[B,EB][B,FA]3/2 |[M:3/4] [B,EG]>[=A,E_G] [B,E=G][CEA] [B,EG][CEA] | %6
 [_DGB][EGc] [DGB][CA]/[Ae]/- [Ae][EAd] | [EAc]>[EAd] [EAc][EGB] [B,EG][=A,E] | %8
[M:5/8] [=A,EF]<[B,EG][A,DF] E2 |[M:1/8] G |[M:3/4] B>=A Bc BG | B[Ge]- [Ge]3 G | B4- BG | %13
 B4- B[B,GB] | [Ge]>[Ge] [Ge]c BG | F E2 E2 [EF] |[M:7/8] [EG] [EB]3 B z [A,DF] |[M:5/8] E-E- E3 |] %18
V:2
 z3 z2 [E,B,E] | [E,B,E]>[E,A,E][E,G,] [E,CE][E,B,E][E,A,E] | %2
 [E,_DE][E,DE][E,CE] [E,B,E]<[E,G,E][E,G,E] | [A,,A,]>[A,,B,][A,,A,] [E,G,E][E,CE][E,B,E] | %4
[M:13/16] [C,C][C,C]C,B,,C,D,3/2 |[M:3/4] E,>E, E,E, E,E, | E,E, E,E,/[E,C]/- [E,C]E, | %7
 A,>A, A,E, E,C, |[M:5/8] B,,<B,,B,, [E,G,]2 |[M:1/8] [E,B,E] | %10
[M:3/4] [E,G,E]>[E,_G,E] [E,=G,E][E,A,E] [E,G,E][E,B,E] | [E,G,E][E,B,]- [E,B,]3 G, | B,4- B,G, | %13
 B,4- B,E, | [E,B,]>[E,B,] [E,B,][E,A,E] [E,G,E][E,B,E] | [E,A,D] [E,G,]2 [C,G,]2 [C,=A,] | %16
[M:7/8] [B,,B,] [B,,G,]3 z AB,, |[M:5/8] z2 A, G,2 |] %18
V:3
 x6 | x6 | x6 | x6 |[M:13/16] z/ z/ z/ z/ z .D3/2 z/ z/ z |[M:3/4] x6 | x6 | x6 |[M:5/8] x5 | %9
[M:1/8] x |[M:3/4] x6 | x6 | x6 | x6 | x6 | x6 |[M:7/8] z z z2 D2 z |[M:5/8] G,2 C/=B,/ _B,2 |] %18
V:4
 x6 | x6 | x6 | x6 |[M:13/16] x13/2 |[M:3/4] x6 | x6 | x6 |[M:5/8] x5 |[M:1/8] x |[M:3/4] x6 | x6 | %12
 x6 | x6 | x6 | x6 |[M:7/8] z z z2 [B,,F,]2 z |[M:5/8] E,-E,- E,3 |] %18

